X: 1
T:Dennis Doody's Polka
R:polka
H:See also "The Glen Cottage", #90
D:Donal Lunny: Live at the National Concert Hall
Z:id:hn-polka-21
M:2/4
L:1/8
K:Edor
B/A/|:GE F/E/D|B,E EG|F/G/A/F/ D>E|FG AB/A/|GE F/E/D|B,E E>F|GA B>A|GF dF:|
|:Be e/f/e/d/|Be e/f/e/d/|Be ef|fg e>f|fg fg|eB BA|B2 E>F|GA B>A:|
